X:957
T:Soptippen, senpolska
C:Kurt Sandström
R:Polska
O:Rossön
N:Samma som ovan fast i D-dur
Q:1/4=90
M:3/4
L:1/8
K:D
|: "Bm"f2 fd (3fdf | "G"g2 g>f e>d | "A"(3cec Ac e>a | "D"f2 f>e d>e | 
"Bm"d2 d>c B>d |"G"e2 e>d c>B | "A"(3Ace aA ce | "D"d2 d2 z2 !fine! :|
|: "D"(3AFA f>e d>c | "G"(3BGB g>f e>d | "A"(3cec E>A c>e | "D"d>d A>d f2 | 
(3AFA f>e d>c | "G"(3BGB g>f e>d | "A"(3cec E>A c>e | "D"d2 d2 z2 "D.C. al Fine":|
(:musicend:)



(:music:)
